assets/procreate.svg

<svg width="56" height="56" viewBox="0 0 56 56" fill="none" xmlns="http://www.w3.org/2000/svg">
<path d="M0 20.2667C0 13.1727 0 9.62567 1.38058 6.91612C2.59498 4.53273 4.53273 2.59498 6.91612 1.38058C9.62567 0 13.1727 0 20.2667 0H35.7333C42.8273 0 46.3743 0 49.0839 1.38058C51.4673 2.59498 53.405 4.53273 54.6194 6.91612C56 9.62567 56 13.1727 56 20.2667V35.7333C56 42.8273 56 46.3743 54.6194 49.0839C53.405 51.4673 51.4673 53.405 49.0839 54.6194C46.3743 56 42.8273 56 35.7333 56H20.2667C13.1727 56 9.62567 56 6.91612 54.6194C4.53273 53.405 2.59498 51.4673 1.38058 49.0839C0 46.3743 0 42.8273 0 35.7333V20.2667Z" fill="#1E252B"/>
<path d="M15.7334 28.8C7.93341 34.5408 6.40001 42.9334 6.40001 49.9334C6.75557 47.8445 8.38668 42.9467 12.0667 40.0667C17.5334 35.7884 27.5333 37.1978 38.4667 29.9334C49.4001 22.6689 50.4667 13.2 49.0667 5.93335C48.094 12.9451 44.7744 16.001 40.2 18.7334C30.2667 24.6667 24.0667 22.6667 15.7334 28.8Z" fill="url(#paint0_linear_113_9)"/>
<path d="M15.7334 28.8C7.93341 34.5408 6.40001 42.9334 6.40001 49.9334C6.75557 47.8445 8.38668 42.9467 12.0667 40.0667C17.5334 35.7884 27.5333 37.1978 38.4667 29.9334C49.4001 22.6689 50.4667 13.2 49.0667 5.93335C48.094 12.9451 44.7744 16.001 40.2 18.7334C30.2667 24.6667 24.0667 22.6667 15.7334 28.8Z" fill="url(#paint1_linear_113_9)"/>
<path d="M6.49329 47.0639C6.9213 40.739 8.97508 33.7741 15.7334 28.8C20.0777 25.6026 23.8422 24.6155 27.8582 23.5626C30.2018 22.9482 32.6311 22.3113 35.3112 21.1995C34.3334 22.1333 29.6871 24.3133 26.1825 25.7699C22.6871 27.2227 19.0018 28.7543 15.9334 30.8C9.77698 34.9042 7.27374 42.045 6.49329 47.0639Z" fill="url(#paint2_linear_113_9)"/>
<path d="M6.49329 47.0639C6.9213 40.739 8.97508 33.7741 15.7334 28.8C20.0777 25.6026 23.8422 24.6155 27.8582 23.5626C30.2018 22.9482 32.6311 22.3113 35.3112 21.1995C34.3334 22.1333 29.6871 24.3133 26.1825 25.7699C22.6871 27.2227 19.0018 28.7543 15.9334 30.8C9.77698 34.9042 7.27374 42.045 6.49329 47.0639Z" fill="url(#paint3_linear_113_9)"/>
<path d="M44.4355 24.7418C43.6688 25.4927 42.8141 26.1649 41.8668 26.7333C37.6001 29.2934 33.065 30.1189 28.6521 30.9223C25.1357 31.5624 21.6969 32.1884 18.5334 33.6667C11.4006 36.9998 7.00067 43.9324 6.40021 49.9322C6.40025 49.9319 6.40017 49.9324 6.40021 49.9322C6.40019 49.9311 6.40003 49.9308 6.40001 49.9297C6.40004 49.4717 6.40665 49.0078 6.42114 48.539C6.45748 47.7953 6.53437 46.9713 6.66159 46.0926C7.60327 41.1584 10.1644 34.646 15.9334 30.8C18.3755 29.1719 21.2084 27.8693 24.0254 26.673C26.5027 25.8597 28.7354 25.3535 30.8626 24.8712C34.2111 24.1121 37.2983 23.4122 40.6668 21.6667C47.7349 18.0041 49.5868 10.4776 49.089 6.05029C50.1458 11.6601 49.7186 18.5598 44.4355 24.7418Z" fill="url(#paint4_linear_113_9)"/>
<path d="M44.4355 24.7418C43.6688 25.4927 42.8141 26.1649 41.8668 26.7333C37.6001 29.2934 33.065 30.1189 28.6521 30.9223C25.1357 31.5624 21.6969 32.1884 18.5334 33.6667C14.4313 35.5836 11.2331 38.691 9.14163 42.1268C10.987 39.5337 13.7983 36.637 17.2667 35.5334C20.6512 34.4565 23.8795 34.3452 27.2334 34.2296C28.1946 34.1965 29.1662 34.163 30.1547 34.1063C32.8189 33.1365 35.611 31.8308 38.4667 29.9334C40.9282 28.2978 42.8897 26.5505 44.4355 24.7418Z" fill="url(#paint5_linear_113_9)"/>
<path d="M44.4355 24.7418C43.6688 25.4927 42.8141 26.1649 41.8668 26.7333C37.6001 29.2934 33.065 30.1189 28.6521 30.9223C25.1357 31.5624 21.6969 32.1884 18.5334 33.6667C14.4313 35.5836 11.2331 38.691 9.14163 42.1268C10.987 39.5337 13.7983 36.637 17.2667 35.5334C20.6512 34.4565 23.8795 34.3452 27.2334 34.2296C28.1946 34.1965 29.1662 34.163 30.1547 34.1063C32.8189 33.1365 35.611 31.8308 38.4667 29.9334C40.9282 28.2978 42.8897 26.5505 44.4355 24.7418Z" fill="url(#paint6_linear_113_9)"/>
<path d="M49.089 6.05029C49.0816 6.01125 49.0742 5.97227 49.0667 5.93335C48.094 12.9451 44.7744 16.001 40.2 18.7334C38.4672 19.7684 36.848 20.562 35.3112 21.1995C34.3334 22.1333 29.6871 24.3133 26.1825 25.7699C25.4693 26.0663 24.7475 26.3663 24.0254 26.673C26.5027 25.8597 28.7354 25.3535 30.8626 24.8712C34.2111 24.1121 37.2983 23.4122 40.6668 21.6667C47.7349 18.0041 49.5868 10.4776 49.089 6.05029Z" fill="url(#paint7_linear_113_9)"/>
<path d="M49.089 6.05029C49.0816 6.01125 49.0742 5.97227 49.0667 5.93335C48.094 12.9451 44.7744 16.001 40.2 18.7334C38.4672 19.7684 36.848 20.562 35.3112 21.1995C34.3334 22.1333 29.6871 24.3133 26.1825 25.7699C25.4693 26.0663 24.7475 26.3663 24.0254 26.673C26.5027 25.8597 28.7354 25.3535 30.8626 24.8712C34.2111 24.1121 37.2983 23.4122 40.6668 21.6667C47.7349 18.0041 49.5868 10.4776 49.089 6.05029Z" fill="url(#paint8_linear_113_9)"/>
<defs>
<linearGradient id="paint0_linear_113_9" x1="31.6633" y1="33.6849" x2="2.12708" y2="55.2703" gradientUnits="userSpaceOnUse">
<stop stop-color="#FE5004"/>
<stop offset="0.602538" stop-color="#FFB915"/>
<stop offset="1" stop-color="#FFFC41"/>
</linearGradient>
<linearGradient id="paint1_linear_113_9" x1="19.8112" y1="35.4667" x2="19.9776" y2="38.5216" gradientUnits="userSpaceOnUse">
<stop stop-color="#FD3E00"/>
<stop offset="1" stop-color="#FD4400" stop-opacity="0"/>
</linearGradient>
<linearGradient id="paint2_linear_113_9" x1="56.043" y1="-2.597" x2="-13.1167" y2="52.6061" gradientUnits="userSpaceOnUse">
<stop stop-color="#005FC6"/>
<stop offset="0.279756" stop-color="#23A4DF"/>
<stop offset="0.465158" stop-color="#3AC2B7"/>
<stop offset="0.640642" stop-color="#60EC7A"/>
<stop offset="0.818668" stop-color="#CFFDBD"/>
<stop offset="1" stop-color="#D0FCB6"/>
</linearGradient>
<linearGradient id="paint3_linear_113_9" x1="43.2177" y1="9.38341" x2="37.2546" y2="4.54121" gradientUnits="userSpaceOnUse">
<stop stop-color="#0061CB"/>
<stop offset="1" stop-color="#067EEA" stop-opacity="0"/>
</linearGradient>
<linearGradient id="paint4_linear_113_9" x1="55.5405" y1="-0.0641596" x2="0.952226" y2="56.8291" gradientUnits="userSpaceOnUse">
<stop stop-color="#8E55F1"/>
<stop offset="0.140795" stop-color="#8B48DF"/>
<stop offset="0.274905" stop-color="#E04DD9"/>
<stop offset="0.492309" stop-color="#F496C8"/>
<stop offset="0.633104" stop-color="#FAD2BA"/>
<stop offset="0.856964" stop-color="#FEF7E5"/>
<stop offset="1" stop-color="#FFF5BF"/>
</linearGradient>
<linearGradient id="paint5_linear_113_9" x1="56.896" y1="-1.31606" x2="-6.71385" y2="12.8554" gradientUnits="userSpaceOnUse">
<stop stop-color="#F41A73"/>
<stop offset="0.399909" stop-color="#FC50A3"/>
<stop offset="0.584511" stop-color="#FE9485"/>
<stop offset="0.703104" stop-color="#FFAF88"/>
<stop offset="1" stop-color="#FFC385"/>
</linearGradient>
<linearGradient id="paint6_linear_113_9" x1="36.9037" y1="14.3605" x2="37.3391" y2="24.6544" gradientUnits="userSpaceOnUse">
<stop stop-color="#9B0008"/>
<stop offset="1" stop-color="#EA115A" stop-opacity="0"/>
</linearGradient>
<linearGradient id="paint7_linear_113_9" x1="56.0781" y1="9.90053" x2="-21.5844" y2="51.7561" gradientUnits="userSpaceOnUse">
<stop stop-color="#231283"/>
<stop offset="0.362865" stop-color="#7053C6"/>
<stop offset="0.466353" stop-color="#7272DB"/>
<stop offset="0.634311" stop-color="#399EE9"/>
<stop offset="1" stop-color="#00CFFF"/>
</linearGradient>
<linearGradient id="paint8_linear_113_9" x1="41.3333" y1="20" x2="42.7333" y2="21.8" gradientUnits="userSpaceOnUse">
<stop stop-color="#3F259D" stop-opacity="0"/>
<stop offset="1" stop-color="#412DAA"/>
</linearGradient>
</defs>
</svg>

<svg width="56" height="56" fill="none" xmlns="http://www.w3.org/2000/svg"><path d="M0 20.267c0-7.094 0-10.641 1.38-13.35A12.667 12.667 0 0 1 6.917 1.38C9.626 0 13.173 0 20.266 0h15.467c7.094 0 10.641 0 13.35 1.38a12.667 12.667 0 0 1 5.536 5.536C56 9.626 56 13.173 56 20.266v15.467c0 7.094 0 10.641-1.38 13.35a12.666 12.666 0 0 1-5.536 5.536C46.374 56 42.827 56 35.734 56H20.266c-7.094 0-10.641 0-13.35-1.38a12.667 12.667 0 0 1-5.536-5.536C0 46.374 0 42.827 0 35.734V20.266Z" fill="#1E252B"/><path d="M15.733 28.8C7.933 34.54 6.4 42.933 6.4 49.933c.356-2.089 1.987-6.986 5.667-9.866 5.466-4.279 15.466-2.87 26.4-10.134 10.933-7.264 12-16.733 10.6-24-.973 7.012-4.293 10.068-8.867 12.8-9.933 5.934-16.133 3.934-24.467 10.067Z" fill="url(#a)"/><path d="M15.733 28.8C7.933 34.54 6.4 42.933 6.4 49.933c.356-2.089 1.987-6.986 5.667-9.866 5.466-4.279 15.466-2.87 26.4-10.134 10.933-7.264 12-16.733 10.6-24-.973 7.012-4.293 10.068-8.867 12.8-9.933 5.934-16.133 3.934-24.467 10.067Z" fill="url(#b)"/><path d="M6.493 47.064c.428-6.325 2.482-13.29 9.24-18.264 4.345-3.197 8.11-4.184 12.125-5.237 2.344-.615 4.773-1.252 7.453-2.363-.978.933-5.624 3.113-9.128 4.57-3.496 1.453-7.181 2.984-10.25 5.03-6.156 4.104-8.66 11.245-9.44 16.264Z" fill="url(#c)"/><path d="M6.493 47.064c.428-6.325 2.482-13.29 9.24-18.264 4.345-3.197 8.11-4.184 12.125-5.237 2.344-.615 4.773-1.252 7.453-2.363-.978.933-5.624 3.113-9.128 4.57-3.496 1.453-7.181 2.984-10.25 5.03-6.156 4.104-8.66 11.245-9.44 16.264Z" fill="url(#d)"/><path d="M44.435 24.742a13.863 13.863 0 0 1-2.568 1.991c-4.267 2.56-8.802 3.386-13.215 4.19-3.516.64-6.955 1.265-10.119 2.744C11.401 37 7.001 43.932 6.4 49.932v-.002c0-.458.007-.922.021-1.391.036-.744.113-1.568.24-2.446.942-4.935 3.503-11.447 9.272-15.293 2.442-1.628 5.275-2.93 8.092-4.127 2.478-.813 4.71-1.32 6.838-1.802 3.348-.759 6.435-1.459 9.804-3.204 7.068-3.663 8.92-11.19 8.422-15.617 1.057 5.61.63 12.51-4.654 18.692Z" fill="url(#e)"/><path d="M44.435 24.742a13.863 13.863 0 0 1-2.568 1.991c-4.267 2.56-8.802 3.386-13.215 4.19-3.516.64-6.955 1.265-10.119 2.744-4.102 1.917-7.3 5.024-9.391 8.46 1.845-2.593 4.656-5.49 8.125-6.594 3.384-1.077 6.613-1.188 9.966-1.303a127.06 127.06 0 0 0 2.922-.124c2.664-.97 5.456-2.275 8.312-4.173 2.461-1.635 4.423-3.383 5.968-5.191Z" fill="url(#f)"/><path d="M44.435 24.742a13.863 13.863 0 0 1-2.568 1.991c-4.267 2.56-8.802 3.386-13.215 4.19-3.516.64-6.955 1.265-10.119 2.744-4.102 1.917-7.3 5.024-9.391 8.46 1.845-2.593 4.656-5.49 8.125-6.594 3.384-1.077 6.613-1.188 9.966-1.303a127.06 127.06 0 0 0 2.922-.124c2.664-.97 5.456-2.275 8.312-4.173 2.461-1.635 4.423-3.383 5.968-5.191Z" fill="url(#g)"/><path d="M49.089 6.05a39.136 39.136 0 0 0-.022-.117c-.973 7.012-4.293 10.068-8.867 12.8a37.445 37.445 0 0 1-4.889 2.466c-.978.934-5.624 3.114-9.128 4.57-.714.297-1.436.597-2.158.904 2.478-.813 4.71-1.32 6.838-1.802 3.348-.759 6.435-1.459 9.804-3.204 7.068-3.663 8.92-11.19 8.422-15.617Z" fill="url(#h)"/><path d="M49.089 6.05a39.136 39.136 0 0 0-.022-.117c-.973 7.012-4.293 10.068-8.867 12.8a37.445 37.445 0 0 1-4.889 2.466c-.978.934-5.624 3.114-9.128 4.57-.714.297-1.436.597-2.158.904 2.478-.813 4.71-1.32 6.838-1.802 3.348-.759 6.435-1.459 9.804-3.204 7.068-3.663 8.92-11.19 8.422-15.617Z" fill="url(#i)"/><defs><linearGradient id="a" x1="31.663" y1="33.685" x2="2.127" y2="55.27" gradientUnits="userSpaceOnUse"><stop stop-color="#FE5004"/><stop offset=".603" stop-color="#FFB915"/><stop offset="1" stop-color="#FFFC41"/></linearGradient><linearGradient id="b" x1="19.811" y1="35.467" x2="19.978" y2="38.522" gradientUnits="userSpaceOnUse"><stop stop-color="#FD3E00"/><stop offset="1" stop-color="#FD4400" stop-opacity="0"/></linearGradient><linearGradient id="c" x1="56.043" y1="-2.597" x2="-13.117" y2="52.606" gradientUnits="userSpaceOnUse"><stop stop-color="#005FC6"/><stop offset=".28" stop-color="#23A4DF"/><stop offset=".465" stop-color="#3AC2B7"/><stop offset=".641" stop-color="#60EC7A"/><stop offset=".819" stop-color="#CFFDBD"/><stop offset="1" stop-color="#D0FCB6"/></linearGradient><linearGradient id="d" x1="43.218" y1="9.383" x2="37.255" y2="4.541" gradientUnits="userSpaceOnUse"><stop stop-color="#0061CB"/><stop offset="1" stop-color="#067EEA" stop-opacity="0"/></linearGradient><linearGradient id="e" x1="55.541" y1="-.064" x2=".952" y2="56.829" gradientUnits="userSpaceOnUse"><stop stop-color="#8E55F1"/><stop offset=".141" stop-color="#8B48DF"/><stop offset=".275" stop-color="#E04DD9"/><stop offset=".492" stop-color="#F496C8"/><stop offset=".633" stop-color="#FAD2BA"/><stop offset=".857" stop-color="#FEF7E5"/><stop offset="1" stop-color="#FFF5BF"/></linearGradient><linearGradient id="f" x1="56.896" y1="-1.316" x2="-6.714" y2="12.855" gradientUnits="userSpaceOnUse"><stop stop-color="#F41A73"/><stop offset=".4" stop-color="#FC50A3"/><stop offset=".585" stop-color="#FE9485"/><stop offset=".703" stop-color="#FFAF88"/><stop offset="1" stop-color="#FFC385"/></linearGradient><linearGradient id="g" x1="36.904" y1="14.361" x2="37.339" y2="24.654" gradientUnits="userSpaceOnUse"><stop stop-color="#9B0008"/><stop offset="1" stop-color="#EA115A" stop-opacity="0"/></linearGradient><linearGradient id="h" x1="56.078" y1="9.901" x2="-21.584" y2="51.756" gradientUnits="userSpaceOnUse"><stop stop-color="#231283"/><stop offset=".363" stop-color="#7053C6"/><stop offset=".466" stop-color="#7272DB"/><stop offset=".634" stop-color="#399EE9"/><stop offset="1" stop-color="#00CFFF"/></linearGradient><linearGradient id="i" x1="41.333" y1="20" x2="42.733" y2="21.8" gradientUnits="userSpaceOnUse"><stop stop-color="#3F259D" stop-opacity="0"/><stop offset="1" stop-color="#412DAA"/></linearGradient></defs></svg>
